svgs/solid/smoke.svg

<svg xmlns="http://www.w3.org/2000/svg" viewBox="0 0 640 512"><!--! Font Awesome Pro 6.0.0-alpha3 by @fontawesome - https://fontawesome.com License - https://fontawesome.com/license (Commercial License) --><path d="M144 192c9.875 0 19.5 .875 29.12 2.5C197.3 136.8 253.8 96 320 96c26.25 0 52 6.75 75.13 19.25c9.25-10.25 20.12-18.5 31.62-25.88C403.8 54.88 364.6 32 320 32C288.4 32 259.9 43.88 237.6 62.75C215.3 25.25 174.8 0 128 0C57.25 0 0 57.25 0 128c0 38.25 17.12 72.13 43.75 95.63C72.25 203.8 106.8 192 144 192zM402.4 158.8C380.1 139.9 351.6 128 320 128C268.3 128 224.1 158.8 203.9 202.8C219.5 208.5 234.5 216.3 248 226.3C277.1 204 313.1 192 352 192c54.88 0 105.1 25.88 139 69.13C503.1 257.8 515.5 256 528 256c35.5 0 67.63 13.38 92.75 34.75C632.8 271.3 640 248.6 640 224c0-70.75-57.25-128-128-128C465.3 96 424.8 121.3 402.4 158.8zM528 288c-18 0-34.75 4.625-49.75 12.12C453.1 254.1 406.8 224 352 224C311 224 274.3 241.3 248 268.8C221.8 241.3 185 224 144 224C64.5 224 0 288.5 0 368S64.5 512 144 512h384c61.88 0 112-50.13 112-112S589.9 288 528 288z"/></svg>

<svg xmlns="http://www.w3.org/2000/svg" viewBox="0 0 640 512"><path d="M528 288c-18 0-34.7 4.6-49.7 12.1C454 255 406.8 224 352 224c-41 0-77.8 17.3-104 44.8-26.2-27.5-63-44.8-104-44.8C64.5 224 0 288.5 0 368s64.5 144 144 144h384c61.9 0 112-50.1 112-112s-50.1-112-112-112zM402.4 158.8C380.1 139.9 351.6 128 320 128c-51.7 0-95.9 30.8-116.1 74.8 15.6 5.7 30.6 13.4 44.1 23.4C278 204 314 192 352 192c54.9 0 106 25.9 139 69.1 12.1-3.4 24.5-5.1 37-5.1 35.5 0 67.6 13.4 92.7 34.8 12-19.5 19.3-42.2 19.3-66.8 0-70.7-57.3-128-128-128-46.8 0-87.3 25.3-109.6 62.8zM144 192c9.9 0 19.5.9 29.1 2.5C197.2 136.8 253.7 96 320 96c26.2 0 52 6.7 75.1 19.2 9.3-10.2 20.2-18.4 31.6-25.8C403.8 54.9 364.6 32 320 32c-31.6 0-60.1 11.9-82.4 30.8C215.3 25.3 174.8 0 128 0 57.3 0 0 57.3 0 128c0 38.2 17.1 72.1 43.7 95.6 28.5-19.9 63-31.6 100.3-31.6z"/></svg>
